packages/core/src/Assets/SvgComponents/header/regulatory-info.svg

<svg width="24" height="24" viewBox="0 0 24 24" fill="none" xmlns="http://www.w3.org/2000/svg">
<path d="M12.375 5.25H11.625V14.25H10.875V5.25H7.0755L9.64815 9.10869C9.65308 9.11795 9.65758 9.12641 9.66171 9.13423C9.71628 9.19725 9.75 9.28219 9.75 9.375V10.5C9.75 11.3284 9.07843 12 8.25 12H4.5C3.67157 12 3 11.3284 3 10.5V9.375C3 9.28257 3.03344 9.19795 3.08888 9.13258L3.10185 9.10869L6.03178 4.71379C6.03835 4.70522 6.04405 4.69778 6.04915 4.69122C6.11062 4.57817 6.23368 4.5 6.375 4.5L10.7011 4.50081C10.5732 4.28 10.5 4.02355 10.5 3.75C10.5 2.92157 11.1716 2.25 12 2.25C12.8284 2.25 13.5 2.92157 13.5 3.75C13.5 4.02355 13.4268 4.28 13.2989 4.50081L17.625 4.5C17.7663 4.5 17.8894 4.57817 17.9533 4.69362L17.9682 4.71379L20.8982 9.10869C20.9031 9.11795 20.9076 9.12641 20.9117 9.13423C20.9663 9.19725 21 9.28219 21 9.375V10.5C21 11.3284 20.3284 12 19.5 12H15.75C14.9216 12 14.25 11.3284 14.25 10.5V9.375C14.25 9.28257 14.2834 9.19795 14.3389 9.13258L14.3518 9.10869L16.9237 5.25H13.125V14.25H14.25C15.0784 14.25 15.75 14.9216 15.75 15.75H18.75L18.8375 15.755C19.2105 15.7984 19.5 16.1154 19.5 16.5V20.25C19.5 20.6642 19.1642 21 18.75 21H12.75C12.3358 21 12 20.6642 12 20.25L11.995 20.3375C11.9516 20.7105 11.6346 21 11.25 21H5.25C4.83579 21 4.5 20.6642 4.5 20.25V18.75C4.5 18.6134 4.53654 18.4852 4.60039 18.3749C4.53671 18.2653 4.5 18.137 4.5 18V16.5C4.5 16.1154 4.78953 15.7984 5.16253 15.755L5.25 15.75H8.25C8.25 14.9216 8.92157 14.25 9.75 14.25H12.375V5.25ZM18.75 18.75H14.25V20.25H18.75V18.75ZM11.25 18.75H6.75V20.25H11.25V18.75ZM6 18.75H5.25V20.25H6V18.75ZM13.5 18.75H12.75V20.25H13.5V18.75ZM18.75 16.5H14.25V18H18.75V16.5ZM11.25 16.5H6.75V18H11.25V16.5ZM6 16.5H5.25V18H6V16.5ZM13.5 16.5H12.75V18H13.5V16.5ZM14.25 15H9.75C9.36537 15 9.04837 15.2895 9.00505 15.6625L9 15.75H15C15 15.3654 14.7105 15.0484 14.3375 15.005L14.25 15ZM9 9.75H3.75V10.5C3.75 10.8846 4.03953 11.2016 4.41253 11.245L4.5 11.25H8.25C8.63463 11.25 8.95163 10.9605 8.99495 10.5875L9 10.5V9.75ZM20.25 9.75H15V10.5C15 10.8846 15.2895 11.2016 15.6625 11.245L15.75 11.25H19.5C19.8846 11.25 20.2016 10.9605 20.245 10.5875L20.25 10.5V9.75ZM6.37425 5.55075L4.07475 9H8.6745L6.37425 5.55075ZM17.625 5.55075L15.3248 9H19.9245L17.625 5.55075ZM12 3C11.5858 3 11.25 3.33579 11.25 3.75C11.25 4.16421 11.5858 4.5 12 4.5C12.4142 4.5 12.75 4.16421 12.75 3.75C12.75 3.33579 12.4142 3 12 3Z" fill="url(#paint0_linear)"/>
<defs>
<linearGradient id="paint0_linear" x1="3.7056" y1="21" x2="21.0288" y2="2.95501" gradientUnits="userSpaceOnUse">
<stop stop-color="#FF444F"/>
<stop offset="1" stop-color="#FF6444"/>
</linearGradient>
</defs>
</svg>

<svg width="24" height="24" fill="none" xmlns="http://www.w3.org/2000/svg"><path d="M12.375 5.25h-.75v9h-.75v-9h-3.8l2.573 3.859.014.025a.368.368 0 01.088.241V10.5a1.5 1.5 0 01-1.5 1.5H4.5A1.5 1.5 0 013 10.5V9.375c0-.092.033-.177.089-.242l.013-.024 2.93-4.395.017-.023a.37.37 0 01.326-.191h4.326a1.5 1.5 0 112.598 0h4.326c.141 0 .264.078.328.194l.015.02 2.93 4.395.014.025a.368.368 0 01.088.241V10.5a1.5 1.5 0 01-1.5 1.5h-3.75a1.5 1.5 0 01-1.5-1.5V9.375c0-.092.033-.177.089-.242l.013-.024 2.572-3.859h-3.799v9h1.125a1.5 1.5 0 011.5 1.5h3l.087.005a.75.75 0 01.663.745v3.75a.75.75 0 01-.75.75h-6a.75.75 0 01-.75-.75l-.005.087a.75.75 0 01-.745.663h-6a.75.75 0 01-.75-.75v-1.5c0-.137.037-.265.1-.375A.745.745 0 014.5 18v-1.5a.75.75 0 01.663-.745l.087-.005h3a1.5 1.5 0 011.5-1.5h2.625v-9zm6.375 13.5h-4.5v1.5h4.5v-1.5zm-7.5 0h-4.5v1.5h4.5v-1.5zm-5.25 0h-.75v1.5H6v-1.5zm7.5 0h-.75v1.5h.75v-1.5zm5.25-2.25h-4.5V18h4.5v-1.5zm-7.5 0h-4.5V18h4.5v-1.5zM6 16.5h-.75V18H6v-1.5zm7.5 0h-.75V18h.75v-1.5zm.75-1.5h-4.5a.75.75 0 00-.745.662L9 15.75h6a.75.75 0 00-.662-.745L14.25 15zM9 9.75H3.75v.75c0 .385.29.702.663.745l.087.005h3.75a.75.75 0 00.745-.662L9 10.5v-.75zm11.25 0H15v.75c0 .385.29.702.662.745l.088.005h3.75a.75.75 0 00.745-.662l.005-.088v-.75zM6.374 5.55L4.074 9h4.6l-2.3-3.45zm11.251 0L15.325 9h4.6l-2.3-3.45zM12 3a.75.75 0 100 1.5.75.75 0 000-1.5z" fill="url(#paint0_linear)"/><defs><linearGradient id="paint0_linear" x1="3.706" y1="21" x2="21.029" y2="2.955" gradientUnits="userSpaceOnUse"><stop stop-color="#FF444F"/><stop offset="1" stop-color="#FF6444"/></linearGradient></defs></svg>
